X: 28829
T: My Silly Wisp Of A Minister
R: reel
M: 4/4
K: Adorian
G|:A2(Bc) dcBe|A2Bc dBGB|A2Bc dcBd|eABG A2A2:|
g2(ge)a2(ae)|gbag fdde|g/g/g gea2ae|gedB A/A/A (Ae)|
g2gea2ae|gbag fdde|gef(g a2)ae|gedB A/A/A A2||

